dist/img/stack/stack-23.svg

<svg width="110" height="110" viewBox="0 0 110 110" fill="none" xmlns="http://www.w3.org/2000/svg">
<g clip-path="url(#clip0_7007_360)">
<path d="M86.0038 54.4945C86.0038 50.5283 82.9988 47.1907 78.9645 46.2383L87.9998 22.0581H43.2229L52.2789 46.3147C48.3714 47.3438 45.4912 50.6232 45.4912 54.5146C45.4912 57.3743 47.0679 59.9101 49.463 61.4735C48.5184 62.694 47.4248 63.8196 46.1857 64.887C43.8535 66.8711 41.2672 68.3958 38.4735 69.4069C35.9521 67.8621 34.86 65.135 35.8469 62.6935C39.6919 61.6261 42.4882 58.3653 42.4882 54.5327C42.4882 49.8235 38.2642 46.0084 33.0935 46.0084C27.9032 46.0084 23.6818 49.8415 23.6818 54.5523C23.6818 56.8793 24.7311 59.014 26.413 60.5387C26.2656 60.8068 26.1191 61.0724 25.9717 61.3585C24.564 63.9913 22.9666 66.966 22.3561 70.3036C21.1377 76.9763 23.1337 82.3362 27.9455 85.3676C30.6566 87.0655 33.6416 87.9235 36.8565 87.9235C42.3809 87.9235 47.9925 85.4057 53.4127 82.9642C57.2799 81.2302 61.2719 79.4173 65.2015 78.5412C66.6519 78.2169 68.1642 78.0256 69.7616 77.8162C72.9961 77.397 76.3379 76.9582 79.343 75.3753C82.8518 73.5262 85.2469 70.4361 85.9414 66.8896C86.4648 64.162 85.9414 61.4168 84.5956 59.014C85.5149 57.6864 86.0066 56.1093 86.0038 54.4945ZM81.9072 54.4945C81.9072 57.1448 79.5322 59.3002 76.6117 59.3002C73.6912 59.3002 71.3162 57.1448 71.3162 54.4945C71.3162 53.636 71.5684 52.8167 72.0092 52.1113C72.1768 51.8432 72.3882 51.5776 72.5971 51.3482C72.8184 51.1122 73.0652 50.9014 73.3329 50.7196L73.355 50.6995C73.5221 50.5851 73.7113 50.4701 73.9006 50.3572C73.9006 50.3572 73.9212 50.3572 73.9212 50.337C74.0052 50.2989 74.0898 50.2422 74.1749 50.204C74.195 50.204 74.2151 50.1839 74.2367 50.1839C74.3218 50.1478 74.4265 50.1097 74.5306 50.071C74.6301 50.0363 74.7283 49.9981 74.8251 49.9565C74.8457 49.9565 74.8674 49.9359 74.8875 49.9359C74.972 49.9184 75.0566 49.8797 75.1396 49.8616C75.1618 49.8616 75.2041 49.8415 75.2242 49.8415C75.3288 49.8235 75.4134 49.8034 75.5181 49.7848H75.5402L75.8548 49.7265C75.8764 49.7265 75.9166 49.7265 75.9388 49.7085C76.0234 49.7085 76.1064 49.6884 76.191 49.6884H76.2956C76.4003 49.6884 76.507 49.6703 76.6318 49.6703H76.9056C76.9881 49.6703 77.0531 49.6703 77.1356 49.6884H77.1779C77.347 49.709 77.5141 49.7265 77.6832 49.7652C80.0783 50.2221 81.9072 52.168 81.9072 54.4945ZM49.084 25.8712H82.1366L74.5513 46.1801C74.2367 46.2383 73.9207 46.3327 73.6066 46.4276L65.6227 31.6498L57.6161 46.3322C57.3 46.2378 56.9638 46.1796 56.6292 46.1228L49.084 25.8712ZM64.1078 52.8342C63.7092 51.0414 62.7001 49.4404 61.2719 48.258L65.6227 40.288L70.0133 48.4292C68.7103 49.6116 67.7651 51.1182 67.3867 52.8342H64.1078ZM53.5818 49.823C53.6865 49.8023 53.7711 49.7848 53.8757 49.7647H53.9381C54.0227 49.7467 54.1078 49.7467 54.1903 49.726H54.2748C54.3594 49.726 54.4218 49.708 54.5064 49.708H55.3262C55.4087 49.708 55.4732 49.726 55.5355 49.726C55.5778 49.726 55.5979 49.726 55.6402 49.7467C55.7248 49.7647 55.7872 49.7647 55.8722 49.7848C55.8918 49.7848 55.914 49.7848 55.9563 49.8029C56.0615 49.823 56.1662 49.841 56.2502 49.8611H56.2708C56.3554 49.8792 56.4399 49.8972 56.5224 49.9359C56.5446 49.9359 56.5647 49.956 56.607 49.956C56.6694 49.974 56.754 49.9942 56.8164 50.0323C56.8385 50.0323 56.8586 50.0504 56.8808 50.0504C56.9633 50.089 57.0484 50.1091 57.1329 50.1473H57.1531C57.2577 50.1834 57.3423 50.2215 57.4269 50.2803H57.4475C57.5315 50.3185 57.6161 50.3747 57.7006 50.4128C57.7213 50.4128 57.7213 50.4335 57.7409 50.4335C57.8254 50.4696 57.8883 50.5278 57.9729 50.566L57.9951 50.584C58.2467 50.7557 58.4782 50.947 58.7077 51.1383L58.7298 51.1564C58.9397 51.3657 59.149 51.5952 59.3182 51.8432C59.8642 52.6063 60.1803 53.503 60.1803 54.4755C60.1803 57.1263 57.8053 59.2795 54.8848 59.2795C51.9643 59.2795 49.5894 57.1263 49.5894 54.4755C49.5677 52.2438 51.2698 50.3566 53.5818 49.823ZM32.9042 49.6879C35.8253 49.6879 38.1997 51.8432 38.1997 54.4935C38.1997 57.1443 35.8253 59.2991 32.9042 59.2991C29.9837 59.2991 27.6088 57.1443 27.6088 54.4935C27.6088 51.8432 29.9837 49.6879 32.9042 49.6879ZM81.7803 66.2224C81.3189 68.6613 79.657 70.7986 77.2201 72.0753C74.9297 73.2777 72.1139 73.6582 69.1511 74.0393C67.5341 74.2486 65.8321 74.4781 64.1924 74.8406C59.8219 75.8136 55.6201 77.7209 51.5436 79.5498C46.3327 81.8964 41.4141 84.1079 36.8565 84.1079C34.4815 84.1079 32.3587 83.4979 30.3426 82.2207C25.72 79.3224 25.9495 73.8882 26.4976 70.9131C27.0009 68.1277 28.409 65.5155 29.7543 63.0178C29.8368 62.8647 29.9012 62.7316 29.9837 62.5785C30.4473 62.7316 30.9304 62.8466 31.4342 62.9229C30.6365 66.9654 32.9042 71.141 37.3175 73.2014L38.1167 73.5819L38.9773 73.2958C42.6552 72.1134 46.0589 70.1881 49.0639 67.6136C50.766 66.1636 52.2165 64.6008 53.4349 62.9028C53.918 62.9797 54.4017 62.9998 54.8848 62.9998C59.2558 62.9998 62.9317 60.2721 63.983 56.6107H67.512C68.5633 60.2907 72.2408 62.9992 76.6117 62.9992C78.3561 62.9992 79.9736 62.561 81.3591 61.8174C81.9072 63.2473 82.0742 64.7338 81.7803 66.2224Z" fill="#B7B7BE"/>
</g>
<defs>
<clipPath id="clip0_7007_360">
<rect width="66" height="66" fill="white" transform="translate(22 22)"/>
</clipPath>
</defs>
</svg>

<svg width="110" height="110" viewBox="0 0 110 110" fill="none" xmlns="http://www.w3.org/2000/svg"><g clip-path="url(#clip0_7007_360)"><path d="M86.004 54.495c0-3.967-3.005-7.304-7.04-8.257L88 22.058H43.223l9.056 24.257c-3.908 1.029-6.788 4.308-6.788 8.2 0 2.86 1.577 5.395 3.972 6.959-.945 1.22-2.038 2.346-3.277 3.413-2.333 1.984-4.919 3.509-7.712 4.52-2.522-1.545-3.614-4.272-2.627-6.713 3.845-1.068 6.641-4.329 6.641-8.161 0-4.71-4.224-8.525-9.395-8.525-5.19 0-9.411 3.834-9.411 8.544 0 2.327 1.05 4.462 2.731 5.987-.147.268-.294.533-.441.82-1.408 2.632-3.005 5.607-3.616 8.945-1.218 6.672.778 12.032 5.59 15.064 2.71 1.698 5.696 2.556 8.91 2.556 5.525 0 11.136-2.518 16.557-4.96 3.867-1.734 7.859-3.547 11.788-4.423 1.45-.324 2.963-.515 4.56-.725 3.235-.419 6.577-.858 9.582-2.44 3.509-1.85 5.904-4.94 6.598-8.486.524-2.728 0-5.473-1.345-7.876a7.915 7.915 0 001.408-4.52zm-4.097 0c0 2.65-2.375 4.805-5.295 4.805s-5.296-2.155-5.296-4.805c0-.859.252-1.678.693-2.384.168-.268.38-.533.588-.763.221-.236.468-.447.736-.628l.022-.02c.167-.115.356-.23.546-.343 0 0 .02 0 .02-.02.084-.038.169-.095.254-.133.02 0 .04-.02.062-.02.085-.036.19-.074.294-.113.1-.035.197-.073.294-.114.02 0 .042-.021.063-.021.084-.018.169-.056.252-.074.022 0 .064-.02.084-.02.105-.018.19-.039.294-.057h.022l.315-.058c.021 0 .062 0 .084-.018.084 0 .167-.02.252-.02h.105c.104 0 .211-.019.336-.019h.274c.082 0 .147 0 .23.018h.042c.169.021.336.038.505.077 2.395.457 4.224 2.403 4.224 4.73zM49.084 25.87h33.053l-7.586 20.31a8.64 8.64 0 00-.944.247L65.623 31.65l-8.007 14.682a8.36 8.36 0 00-.987-.21l-7.545-20.25zm15.024 26.963c-.399-1.793-1.408-3.394-2.836-4.576l4.35-7.97 4.391 8.141c-1.303 1.183-2.248 2.69-2.626 4.405h-3.28zm-10.526-3.011l.294-.058h.062c.085-.018.17-.018.252-.039h.085c.084 0 .147-.018.231-.018h.82c.083 0 .147.018.21.018.042 0 .062 0 .104.02.085.019.147.019.232.039.02 0 .042 0 .084.018.105.02.21.038.294.058h.02c.085.018.17.036.252.075.023 0 .043.02.085.02.062.018.147.038.21.076.022 0 .042.018.064.018.082.039.167.06.252.097h.02c.105.036.19.075.274.133h.02c.084.038.17.095.254.133.02 0 .02.02.04.02.084.037.147.095.232.133l.022.018c.252.172.483.363.713.554l.022.018c.21.21.419.44.588.687.546.763.862 1.66.862 2.632 0 2.651-2.375 4.804-5.295 4.804s-5.296-2.153-5.296-4.804c-.021-2.231 1.68-4.118 3.993-4.652zm-20.678-.135c2.921 0 5.296 2.155 5.296 4.805 0 2.651-2.375 4.806-5.296 4.806-2.92 0-5.295-2.155-5.295-4.806 0-2.65 2.375-4.805 5.295-4.805zM81.78 66.222c-.461 2.44-2.123 4.577-4.56 5.853-2.29 1.203-5.106 1.583-8.069 1.964-1.617.21-3.319.44-4.959.802-4.37.973-8.572 2.88-12.648 4.709-5.211 2.346-10.13 4.558-14.688 4.558-2.375 0-4.497-.61-6.513-1.887-4.623-2.899-4.393-8.333-3.845-11.308.503-2.785 1.911-5.397 3.256-7.895.083-.153.147-.286.23-.44.463.154.946.269 1.45.345-.797 4.042 1.47 8.218 5.884 10.278l.799.38.86-.285c3.678-1.183 7.082-3.108 10.087-5.682 1.702-1.45 3.153-3.013 4.37-4.711.484.077.968.097 1.45.097 4.372 0 8.048-2.728 9.099-6.39h3.529c1.051 3.68 4.729 6.39 9.1 6.39a10.01 10.01 0 004.747-1.183c.548 1.43.715 2.917.421 4.405z" fill="#B7B7BE"/></g><defs><clipPath id="clip0_7007_360"><path fill="#fff" transform="translate(22 22)" d="M0 0h66v66H0z"/></clipPath></defs></svg>
